X:165
T:Summertime
C:George Gershwin
N:Arranged for solo mandolin by Mike Stangeland
L:1/8
Q:1/4=70
M:4/4
K:C
z8 | "Am6"A,[ec^F] z2 "E7"B,[^fd^G] z2 |: "Am6"A,[ec^F] z2 "E7"B,[^fd^G] z2 | 
"Am6"A,[ec^F] z2 "E7"B,e ec | "Am6"eA, (3^Fce "E7"B,[^fd^G] z2 | "Am6"A,^F [dFA,]c "E7"de [e2c2^G2] | 
"Am6"[eA]E (3EAe (3"E7/B"FAe (3FAe | (3"Am6"^Fce (3Fce (3"A7"G^ce e=c | "Dm7"[d2F2A,2] (3A,Fd "F"[^c2F2A,2] (3A,Fc | 
"Dm7/A"[c2F2A,2] AA [c^F]A "Adim7"[c2^D2] | "E/G#"[e2B2E2] e^d "B7"=dB ^F=F | 
"E7"EE ^C=C "Bb9"B,e ec | [eAEA,]^F z2 "E7"B,[^fd^G] z2 | "Am6"A,^F dc "E7"de [c2^G2] | 
"Am6"A,[ec^F] z2 "E7"B,[^fd^G] z2 | "Am"G,A, B,C "D7"(3DE^F ^GA | "C/G"[c2G2G,2] EG "Am6"[A2E2A,2] [c2G2A,2] | 
"D7"[eAD]^F d2 "E7#5"[ec=F]F [e2c2F2] :| "Am6"A,[ec^F] z2 "E7"B,[^fd^G] z2 | (3A,DE (3Ace g2 [^f2c2E2A,2] | 
z8 | 


